X:65
T: Sandpiper
S: J.Kelly - P.O'Brien
Z: B.Black
R: reel
M: 4/4
L: 1/8
K: Ador
eAA^G A2 A=G | EGDG EGDG | eAA^G ABcd | egfg edcB |
eAA^G A2 A=G | EGDG EGDG | eAA^G ABcd | egfg edcB ||
eaag a2 ab | geef gedB | eaag a2 ga | bagb a2 ab |
eaag a2 ab | gedB dega | bgaf gedg | e2 ed eaag ||
